src/img/Cerrar-Naranja.svg

<svg width="16" height="17" viewBox="0 0 16 17" fill="none" xmlns="http://www.w3.org/2000/svg">
<path d="M15.8281 14.9766C15.9375 15.1016 15.9922 15.25 15.9922 15.4219C15.9922 15.5781 15.9375 15.7109 15.8281 15.8203C15.7031 15.9453 15.5547 16.0078 15.3828 16.0078C15.2266 16.0078 15.0938 15.9453 14.9844 15.8203L8 8.83594L1.01562 15.8203C0.90625 15.9453 0.765625 16.0078 0.59375 16.0078C0.421875 16.0078 0.28125 15.9453 0.171875 15.8203C0.0625 15.7109 0.0078125 15.5781 0.0078125 15.4219C0.0078125 15.25 0.0625 15.1016 0.171875 14.9766L7.15625 7.99219L0.171875 1.00781C0.0625 0.898438 0.0078125 0.765625 0.0078125 0.609375C0.0078125 0.4375 0.0625 0.289062 0.171875 0.164062C0.296875 0.0546875 0.4375 0 0.59375 0C0.765625 0 0.90625 0.0546875 1.01562 0.164062L8 7.14844L14.9844 0.164062C15.0938 0.0546875 15.2344 0 15.4062 0C15.5781 0 15.7188 0.0546875 15.8281 0.164062C15.9375 0.289062 15.9922 0.4375 15.9922 0.609375C15.9922 0.765625 15.9375 0.898438 15.8281 1.00781L8.84375 7.99219L15.8281 14.9766Z" fill="#EC7000"/>
</svg>

<svg width="16" height="17" fill="none" xmlns="http://www.w3.org/2000/svg"><path d="M15.828 14.977a.65.65 0 01.164.445.542.542 0 01-.164.398.608.608 0 01-.445.188.51.51 0 01-.399-.188L8 8.836 1.016 15.82a.535.535 0 01-.422.188.535.535 0 01-.422-.188.542.542 0 01-.164-.398.65.65 0 01.164-.445l6.984-6.985L.172 1.008A.542.542 0 01.008.609c0-.171.054-.32.164-.445A.624.624 0 01.594 0c.172 0 .312.055.422.164L8 7.148 14.984.164c.11-.11.25-.164.422-.164s.313.055.422.164a.65.65 0 01.164.445c0 .157-.055.29-.164.399L8.844 7.992l6.984 6.985z" fill="#EC7000"/></svg>
